{
  "type": "map",
  "version": "1.10",
  "orientation": "orthogonal",
  "renderorder": "right-down",
  "width": 2,
  "height": 2,
  "tilewidth": 16,
  "tileheight": 16,
  "infinite": false,
  "layers": [
    {
      "type": "tilelayer",
      "name": "main",
      "width": 2,
      "height": 2,
      "visible": true,
      "opacity": 1,
      "data": [1, 2, 3, 4]
    }
  ],
  "tilesets": [
    {
      "firstgid": 1,
      "name": "spaced",
      "image": "atlas.png",
      "imagewidth": 48,
      "imageheight": 48,
      "tilewidth": 16,
      "tileheight": 16,
      "columns": 2,
      "tilecount": 4,
      "margin": 4,
      "spacing": 8
    }
  ]
}
