{
  "type": "map",
  "version": "1.10",
  "orientation": "hexagonal",
  "renderorder": "right-down",
  "width": 2,
  "height": 2,
  "tilewidth": 16,
  "tileheight": 16,
  "hexsidelength": 8,
  "staggeraxis": "y",
  "staggerindex": "odd",
  "infinite": false,
  "layers": [
    {
      "type": "tilelayer",
      "name": "main",
      "width": 2,
      "height": 2,
      "visible": true,
      "opacity": 1,
      "data": [1, 2, 3, 4]
    }
  ],
  "tilesets": [
    {
      "firstgid": 1,
      "name": "tiles",
      "image": "tiles.png",
      "imagewidth": 64,
      "imageheight": 16,
      "tilewidth": 16,
      "tileheight": 16,
      "columns": 4,
      "tilecount": 4
    }
  ]
}
